X: 21316
T: Kenmay House
R: barndance
M: 4/4
K: Cmajor
|:B>c|d2 (3ddd c2 d2|A2 (3FFF D2 F>D|A2 (3AAA D2 F2|B2 (3BBB B>c d2|
[1 c2 (3ccc c>B A2|c2 (3ccc c2- c>A|G2 (3AAG F2 (3EEE|D>F B2 A2:|
[2 (3ccc (3ccc c>B A2|c2 c2 c2- c>B|A2 (3AAA B2 c2|d2 d2 d2||
|:(3EFG|A2 (3AAA d2 (3EFG|B2 A>^G A2 (3EF=G|A2 (3AAA A2 (3ddd|d2 c>^B c2 (3DEF|
G2 (3GGG A2 (3GGG|c2 (3GGG B2 (3DDD|C>D (3DEF G<A (3ABc|1 B2 A>^G A2:|2 d2 (3d'd'd' d2||

